public/icon-assembly.svg

<svg fill="none" height="25" viewBox="0 0 34 25" width="34" xmlns="http://www.w3.org/2000/svg"><path d="m.189137 5.12171c-.499732.99391.033316 2.19882 1.099413 2.50421l9.06735 2.59308c.7718.2221 1.5992-.1055 2.0101-.79404l4.6364-7.71809-13.59276-1.69909322c-.37203-.04442068-.7385.14991922-.90507.48307422zm16.813263-3.41484 4.6308 7.71809c.4109.68854 1.2382 1.01614 2.0101.79404l9.0673-2.59308c1.0717-.30539 1.5992-1.5103 1.0994-2.50421l-2.3098-4.630859c-.1666-.338707-.5331-.5330475-.9051-.48307422zm11.5493 8.95633v8.5065l-10.2167 2.5542v-13.35393c0-.7385-.5941-1.33262-1.3326-1.33262s-1.3327.59412-1.3327 1.33262v13.35393l-10.21671-2.5542v-8.5065l-2.66524-.76072v9.27282c0 1.2216.83288 2.2877 2.02114 2.5875l11.33281 2.8318c.5664.1388 1.1605.1388 1.7213 0l11.3328-2.8318c1.1883-.2943 2.0212-1.3604 2.0212-2.5875v-9.27282z" fill="#011580"/></svg>

<svg width="34" height="25" viewBox="0 0 34 25" fill="none" xmlns="http://www.w3.org/2000/svg">
<path d="M0.189137 5.12171C-0.310595 6.11562 0.222453 7.32053 1.28855 7.62592L10.3559 10.219C11.1277 10.4411 11.9551 10.1135 12.366 9.42496L17.0024 1.70687L3.40964 0.00777678C3.03761 -0.0366439 2.67114 0.157696 2.50457 0.490851L0.189137 5.12171ZM17.0024 1.70687L21.6332 9.42496C22.0441 10.1135 22.8714 10.4411 23.6433 10.219L32.7106 7.62592C33.7823 7.32053 34.3098 6.11562 33.81 5.12171L31.5002 0.490851C31.3336 0.152144 30.9671 -0.0421965 30.5951 0.00777678L17.0024 1.70687ZM28.5517 10.6632V19.1697L18.335 21.7239V8.36997C18.335 7.63147 17.7409 7.03735 17.0024 7.03735C16.2639 7.03735 15.6697 7.63147 15.6697 8.36997V21.7239L5.45299 19.1697V10.6632L2.78775 9.90248V19.1753C2.78775 20.3969 3.62063 21.463 4.80889 21.7628L16.1417 24.5946C16.7081 24.7334 17.3022 24.7334 17.863 24.5946L29.1958 21.7628C30.3841 21.4685 31.217 20.4024 31.217 19.1753V9.90248L28.5517 10.6632Z" fill="#011580"/>
</svg>
